X:1
T:Title
%%score { ( 1 3 ) | ( 2 4 ) }
L:1/8
Q:1/4=90
M:6/8
K:G
V:1 treble nm="Grand Piano"
V:3 treble 
V:2 bass 
V:4 bass 
V:1
 B>BB E2 E | F2 G A3 | G>G[EG] [CE]2 [CD] | [B,D]6 | B>BB E2 E | F2 G A2 A | B2 [GB] [G^c]2 [GA] | %7
w: Robert~Harkness * * * *|||||||
 [Fd]6 | d>dd B3 | [^DB]>[DB][FB] [EG]2 [=FG] | [EG]2 e d2 B | [FA]6 | B>BB d3 | B>AG e2 A | %14
w: |||||||
 c3 [FA]3 | G6 |] %16
w: ||
V:2
 [G,D]>[G,D][G,D] [G,B,D]2 [G,B,D] | [D,A,C]2 [D,G,B,] [D,F,C]3 | %2
 [E,G,B,]>[E,G,E][B,,G,] [C,G,]2 [A,,F,] | [G,,G,]6 | [G,D]>[G,D][G,D] [G,B,D]2 [G,B,D] | %5
 [D,A,D]2 [D,B,D] [D,CD]2 [D,F,D] | [G,D]2 [E,E] [A,E]2 [A,^C] | D3 z3 | %8
 [G,B,G]>[G,B,G][G,B,G][K:bass] [G,D]3 | [B,,F,]>[B,,F,][^D,B,] [E,B,]2 [^C,B,] | %10
 [C,C]2[K:treble] [CG] [G,B,G]2 [G,DG] | [D,D]6 | [G,DG]>[G,DG][G,DG] [G,B,=F]3 | %13
 [G,D=F]>[A,DF][B,DF][K:bass] [CE]2 [CE] | [A,CE]3 [D,C]3 | [G,B,]6 |] %16
V:3
 x6 | x6 | x6 | x6 | x6 | x6 | x6 | z3 .C3 | x6 | x6 | x6 | x6 | x6 | x6 | x6 | x6 |] %16
V:4
 x6 | x6 | x6 | x6 | x6 | x6 | x6 | D,6 | x3[K:bass] x3 | x6 | x2[K:treble] x4 | x6 | x6 | %13
 x3[K:bass] x3 | x6 | x6 |] %16

